;FLAVOR:UltiGCode
;TIME:5945
;MATERIAL:11586
;MATERIAL2:0
;NOZZLE_DIAMETER:0.4
;MINX:71.763
;MINY:91.722
;MINZ:0.17
;MAXX:154.256
;MAXY:131.637
;MAXZ:21.27
;TARGET_MACHINE.NAME:Ultimaker 2+
;Generated with Cura_SteamEngine 5.6.0
M82 ;absolute extrusion mode
G0 F3000 Y50 ;avoid prime blob
G92 E0
G92 E0
G10
;LAYER_COUNT:141
;LAYER:0
M107
G0 F9000 X74.823 Y96.244 Z0.27
;TYPE:SKIRT
G11
G1 F1800 X76.086 Y95.562 E0.15502
G1 X76.178 Y95.504 E0.16677
G1 X78.425 Y94.29 E0.4426
G1 X79.297 Y93.913 E0.5452
G1 X80.353 Y93.572 E0.66504
G1 X82.875 Y93.069 E0.94278
G1 X84.129 Y92.807 E1.08114
G1 X84.915 Y92.664 E1.16742
G1 X86.483 Y92.404 E1.33908
G1 X87.86 Y92.131 E1.49069
G1 X89.042 Y91.91 E1.62056
G1 X89.915 Y91.796 E1.71564
G1 X91.053 Y91.747 E1.83866
G1 X92.099 Y91.731 E1.95164
G1 X94.292 Y91.722 E2.18849
G1 X95.305 Y91.736 E2.2979
G1 X98.266 Y92.231 E2.62213
G1 X100.985 Y92.606 E2.91856
G1 X103.675 Y92.9 E3.21081
G1 X106.419 Y93.123 E3.50814
G1 X109.144 Y93.264 E3.80283
G1 X111.861 Y93.33 E4.09635
G1 X114.592 Y93.318 E4.3913
G1 X117.308 Y93.23 E4.68479
G1 X120.043 Y93.063 E4.98072
G1 X122.736 Y92.823 E5.27271
G1 X125.455 Y92.502 E5.5684
G1 X128.163 Y92.105 E5.86399
G1 X130.121 Y91.775 E6.07844
G1 X131.365 Y91.771 E6.21279
G1 X132.008 Y91.836 E6.28259
G1 X134.463 Y92.27 E6.55184
G1 X137.189 Y92.678 E6.84953
G1 X140.231 Y93.047 E7.18047
G1 X141.045 Y93.341 E7.27394
G1 X141.74 Y93.639 E7.35561
G1 X142.393 Y94.007 E7.43657
G1 X143.129 Y94.567 E7.53645
G1 X145.287 Y96.587 E7.85568
G1 X145.971 Y97.195 E7.95452
G1 X146.872 Y98.022 E8.0866
G1 X147.569 Y98.824 E8.20136
G1 X148.782 Y100.28 E8.40603
G1 X149.404 Y101.138 E8.52048
G1 X150.233 Y102.345 E8.67862
G1 X151.732 Y104.759 E8.98551
G1 X153.268 Y107.096 E9.28754
G1 X153.627 Y107.711 E9.36445
G1 X153.925 Y108.335 E9.43913
G1 X154.155 Y109.345 E9.551
G1 X154.244 Y110.079 E9.63086
G1 X154.255 Y110.705 E9.69847
G1 X154.256 Y112.415 E9.88315
G1 X154.241 Y113.485 E9.99873
G1 X154.01 Y114.321 E10.0924
G1 X153.712 Y115.099 E10.18237
G1 X153.24 Y115.913 E10.284
G1 X151.513 Y118.551 E10.62452
G1 X150.304 Y120.52 E10.87406
G1 X149.679 Y121.446 E10.99472
G1 X148.784 Y122.69 E11.16023
G1 X148.243 Y123.354 E11.25273
G1 X147.499 Y124.236 E11.37735
G1 X147 Y124.809 E11.45941
G1 X146.413 Y125.376 E11.54755
G1 X145.629 Y126.036 E11.65823
G1 X144.648 Y126.805 E11.79285
G1 X143.786 Y127.531 E11.91457
G1 X143.603 Y127.663 E11.93894
G1 X142.347 Y128.702 E12.11498
G1 X141.618 Y129.049 E12.20218
G1 X138.852 Y130.083 E12.5211
G1 X137.151 Y130.461 E12.70929
G1 X136.223 Y130.657 E12.81172
G1 X132.587 Y131.534 E13.21567
G1 X131.834 Y131.627 E13.29761
G1 X131.031 Y131.637 E13.38434
G1 X130.031 Y131.619 E13.49236
G1 X126.473 Y131.008 E13.88225
G1 X123.801 Y130.629 E14.17371
G1 X121.088 Y130.323 E14.46858
G1 X118.349 Y130.092 E14.76544
G1 X115.652 Y129.942 E15.05716
G1 X112.903 Y129.867 E15.35417
G1 X110.208 Y129.869 E15.64523
G1 X107.452 Y129.95 E15.943
G1 X104.73 Y130.106 E16.23746
G1 X102.02 Y130.338 E16.53121
G1 X99.34 Y130.646 E16.82256
G1 X95.021 Y131.286 E17.2941
G1 X92.957 Y131.28 E17.51702
G1 X91.183 Y131.252 E17.70863
G1 X89.972 Y131.207 E17.83951
G1 X89.011 Y131.129 E17.94364
G1 X87.43 Y130.823 E18.11756
G1 X85.399 Y130.41 E18.34139
G1 X84.329 Y130.215 E18.45886
G1 X83.278 Y129.994 E18.57485
G1 X80.638 Y129.471 E18.86551
G1 X79.663 Y129.194 E18.97497
G1 X78.87 Y128.887 E19.06681
G1 X78.276 Y128.613 E19.13746
G1 X75.11 Y126.89 E19.52674
G1 X74.472 Y126.456 E19.61008
G1 X73.792 Y125.84 E19.70917
G1 X73.237 Y125.278 E19.79448
G1 X72.482 Y124.34 E19.92452
G1 X72.159 Y123.59 E20.01271
G1 X71.995 Y122.847 E20.09489
G1 X71.903 Y122.042 E20.18239
G1 X71.827 Y121.145 E20.27962
G1 X71.79 Y119.94 E20.40982
G1 X71.763 Y117.119 E20.7145
G1 X71.765 Y105.183 E22.00359
G1 X71.793 Y102.807 E22.26021
G1 X71.817 Y101.926 E22.3554
G1 X72.023 Y99.811 E22.5849
G1 X72.273 Y99.089 E22.66742
G1 X72.692 Y98.379 E22.75645
G1 X73.316 Y97.605 E22.86383
G1 X74.195 Y96.731 E22.9977
G1 X74.823 Y96.244 E23.08353
G0 F9000 X75.013 Y96.596
G1 F1800 X76.293 Y95.905 E23.24063
G1 X76.368 Y95.856 E23.2503
G1 X78.584 Y94.657 E23.52242
G1 X79.42 Y94.294 E23.62085
G1 X80.476 Y93.953 E23.74069
G1 X82.957 Y93.461 E24.01386
G1 X84.201 Y93.201 E24.15112
G1 X84.981 Y93.059 E24.23674
G1 X86.549 Y92.798 E24.40841
G1 X87.933 Y92.524 E24.56079
G1 X89.095 Y92.307 E24.68845
G1 X89.932 Y92.196 E24.77964
G1 X91.059 Y92.147 E24.90147
G1 X92.101 Y92.131 E25.01402
G1 X94.288 Y92.122 E25.25022
G1 X95.239 Y92.131 E25.35293
G1 X98.2 Y92.625 E25.67714
G1 X100.942 Y93.004 E25.97609
G1 X103.636 Y93.298 E26.26877
G1 X106.387 Y93.521 E26.56685
G1 X109.134 Y93.664 E26.86393
G1 X111.853 Y93.73 E27.15767
G1 X114.605 Y93.718 E27.45489
G1 X117.321 Y93.63 E27.74837
G1 X120.07 Y93.462 E28.04582
G1 X122.782 Y93.22 E28.33988
G1 X125.513 Y92.898 E28.63687
G1 X128.221 Y92.501 E28.93246
G1 X130.123 Y92.175 E29.14087
G1 X131.325 Y92.169 E29.27069
G1 X131.938 Y92.23 E29.33722
G1 X134.404 Y92.666 E29.60768
G1 X137.13 Y93.074 E29.90536
G1 X140.138 Y93.439 E30.23261
G1 X140.887 Y93.709 E30.3186
G1 X141.582 Y94.007 E30.40027
G1 X142.152 Y94.326 E30.47081
G1 X142.856 Y94.859 E30.56618
G1 X145.021 Y96.886 E30.88648
G1 X145.701 Y97.49 E30.98471
G1 X146.57 Y98.285 E31.11191
G1 X147.262 Y99.08 E31.22574
G1 X148.458 Y100.515 E31.42749
G1 X149.074 Y101.365 E31.54086
G1 X149.893 Y102.556 E31.69697
G1 X151.398 Y104.979 E32.00502
G1 X152.923 Y107.299 E32.30487
G1 X153.266 Y107.883 E32.37801
G1 X153.545 Y108.467 E32.44791
G1 X153.765 Y109.434 E32.55502
G1 X153.844 Y110.086 E32.62595
G1 X153.855 Y110.705 E32.69281
G1 X153.856 Y112.409 E32.87684
G1 X153.842 Y113.427 E32.9868
G1 X153.636 Y114.178 E33.0709
G1 X153.338 Y114.956 E33.16088
G1 X152.905 Y115.694 E33.25329
G1 X151.178 Y118.332 E33.59382
G1 X149.972 Y120.296 E33.84273
G1 X149.354 Y121.213 E33.96215
G1 X148.474 Y122.437 E34.12496
G1 X147.937 Y123.096 E34.21677
G1 X147.197 Y123.974 E34.34078
G1 X146.722 Y124.522 E34.41911
G1 X146.156 Y125.07 E34.50419
G1 X145.382 Y125.721 E34.61342
G1 X144.401 Y126.49 E34.74804
G1 X143.528 Y127.225 E34.87129
G1 X143.359 Y127.346 E34.89374
G1 X142.132 Y128.361 E35.06572
G1 X141.478 Y128.674 E35.14402
G1 X138.712 Y129.708 E35.46294
G1 X137.13 Y130.05 E35.63774
G1 X137.068 Y130.07 E35.64478
G1 X136.129 Y130.268 E35.74842
G1 X132.537 Y131.137 E36.14755
G1 X131.829 Y131.227 E36.22463
G1 X131.036 Y131.237 E36.31028
G1 X130.099 Y131.225 E36.41148
G1 X126.529 Y130.612 E36.80269
G1 X123.857 Y130.233 E37.09415
G1 X121.121 Y129.924 E37.39152
G1 X118.382 Y129.694 E37.68837
G1 X115.663 Y129.542 E37.98248
G1 X112.914 Y129.467 E38.27948
G1 X110.196 Y129.469 E38.57303
G1 X107.44 Y129.55 E38.8708
G1 X104.696 Y129.707 E39.16764
G1 X101.986 Y129.94 E39.4614
G1 X99.281 Y130.25 E39.75545
G1 X95.022 Y130.886 E40.22052
G1 X92.963 Y130.88 E40.4429
G1 X91.198 Y130.852 E40.63354
G1 X90.003 Y130.808 E40.76269
G1 X89.087 Y130.736 E40.86192
G1 X87.51 Y130.431 E41.03539
G1 X85.471 Y130.016 E41.26012
G1 X84.411 Y129.823 E41.37648
G1 X83.36 Y129.603 E41.49245
G1 X80.747 Y129.086 E41.78013
G1 X79.807 Y128.821 E41.8856
G1 X79.038 Y128.524 E41.97463
G1 X78.444 Y128.25 E42.04528
G1 X75.333 Y126.558 E42.42775
G1 X74.741 Y126.16 E42.50479
G1 X74.061 Y125.544 E42.60388
G1 X73.549 Y125.027 E42.68247
G1 X72.826 Y124.129 E42.80698
G1 X72.541 Y123.467 E42.88482
G1 X72.392 Y122.802 E42.95842
G1 X72.302 Y122.008 E43.04472
G1 X72.227 Y121.133 E43.13957
G1 X72.19 Y119.936 E43.2689
G1 X72.163 Y117.119 E43.57315
G1 X72.165 Y105.188 E44.8617
G1 X72.193 Y102.818 E45.11768
G1 X72.217 Y101.937 E45.21286
G1 X72.416 Y99.898 E45.43412
G1 X72.638 Y99.258 E45.50728
G1 X73.004 Y98.629 E45.58588
G1 X73.599 Y97.888 E45.68851
G1 X74.443 Y97.045 E45.81734
G1 X75.013 Y96.596 E45.89571
G10
G0 F9000 X76.833 Y99.467
G11
G1 F1800 X78.47 Y98.612 E46.09517
G1 X78.475 Y98.609 E46.0958
G1 X80.149 Y97.664 E46.30341
G1 X80.768 Y97.41 E46.37567
G1 X81.408 Y97.217 E46.44786
G1 X83.266 Y96.899 E46.65144
G1 X83.305 Y96.926 E46.65657
G1 X83.406 Y96.931 E46.66749
G1 X84.231 Y96.753 E46.75864
G1 X84.255 Y96.746 E46.76134
G1 X84.912 Y96.518 E46.83645
G1 X87.117 Y96.52 E47.07459
G1 X87.183 Y96.509 E47.08181
G1 X87.558 Y96.379 E47.12468
G1 X88.938 Y95.9 E47.28244
G1 X89.617 Y95.686 E47.35933
G1 X89.629 Y95.682 E47.36069
G1 X89.751 Y95.635 E47.37481
G1 X90.33 Y95.566 E47.43779
G1 X91.537 Y95.534 E47.56819
G1 X94.942 Y95.519 E47.93593
G1 X95.145 Y95.567 E47.95846
G1 X95.86 Y96.057 E48.05208
G1 X95.879 Y96.069 E48.0545
G1 X96.69 Y96.498 E48.15359
G1 X96.735 Y96.515 E48.15879
G1 X97.71 Y96.759 E48.26733
G1 X98.048 Y96.861 E48.30546
G1 X98.106 Y96.87 E48.3118
G1 X98.252 Y96.87 E48.32757
G1 X98.261 Y96.888 E48.32974
G1 X98.367 Y96.947 E48.34284
G1 X99.156 Y97.105 E48.42975
G1 X99.186 Y97.109 E48.43302
G1 X100.171 Y97.153 E48.5395
G1 X100.18 Y97.153 E48.54048
G1 X125.425 Y97.157 E51.26694
G1 X125.455 Y97.155 E51.27018
G1 X126.546 Y96.991 E51.38933
G1 X126.657 Y96.935 E51.40276
G1 X126.684 Y96.871 E51.41026
G1 X126.736 Y96.871 E51.41588
G1 X126.855 Y96.832 E51.4294
G1 X126.874 Y96.795 E51.4339
G1 X126.956 Y96.795 E51.44275
G1 X127.075 Y96.756 E51.45628
G1 X127.085 Y96.736 E51.45869
G1 X127.954 Y96.645 E51.55306
G1 X128.001 Y96.634 E51.55827
G1 X129.018 Y96.266 E51.67508
G1 X129.056 Y96.248 E51.67962
G1 X130.031 Y95.642 E51.8036
G1 X130.435 Y95.563 E51.84806
G1 X131.352 Y95.57 E51.9471
G1 X131.736 Y95.683 E51.99033
G1 X132.366 Y96.141 E52.07445
G1 X132.385 Y96.153 E52.07687
G1 X133.226 Y96.635 E52.18156
G1 X133.27 Y96.653 E52.1867
G1 X134.397 Y96.977 E52.31334
G1 X134.441 Y96.985 E52.31817
G1 X135.287 Y97.032 E52.40968
G1 X135.408 Y96.999 E52.42323
G1 X135.416 Y96.988 E52.42469
G1 X136.156 Y97.096 E52.50546
G1 X136.221 Y97.095 E52.51248
G1 X137.19 Y96.916 E52.6189
G1 X138.484 Y96.797 E52.75925
G1 X138.491 Y96.797 E52.76
G1 X138.961 Y96.739 E52.81115
G1 X139.388 Y96.766 E52.85736
G1 X140.213 Y97.108 E52.95381
G1 X140.522 Y97.324 E52.99452
G1 X141.151 Y98.189 E53.11003
G1 X141.165 Y98.206 E53.11241
G1 X141.68 Y98.769 E53.19482
G1 X141.696 Y98.785 E53.19726
G1 X142.317 Y99.327 E53.28628
G1 X142.345 Y99.347 E53.29
G1 X143.033 Y99.763 E53.37683
G1 X143.616 Y100.192 E53.455
G1 X144.158 Y100.674 E53.53334
G1 X145.807 Y102.63 E53.80964
G1 X147.014 Y104.349 E54.03648
G1 X147.44 Y105.197 E54.13897
G1 X147.893 Y106.573 E54.29543
G1 X147.906 Y106.604 E54.29906
G1 X148.317 Y107.379 E54.3938
G1 X148.333 Y107.404 E54.39701
G1 X148.684 Y107.879 E54.46079
G1 X148.703 Y107.901 E54.46393
G1 X149.21 Y108.412 E54.54168
G1 X149.231 Y108.43 E54.54466
G1 X149.994 Y109.01 E54.64817
G1 X150.316 Y109.555 E54.71654
G1 X150.455 Y110.166 E54.78421
G1 X150.456 Y113 E55.09028
G1 X150.274 Y113.48 E55.14572
G1 X150.086 Y113.809 E55.18665
G1 X149.133 Y114.555 E55.31736
G1 X149.106 Y114.579 E55.32126
G1 X148.471 Y115.295 E55.42462
G1 X148.445 Y115.332 E55.4295
G1 X147.98 Y116.187 E55.53461
G1 X147.966 Y116.219 E55.53839
G1 X147.439 Y117.784 E55.71673
G1 X147.013 Y118.63 E55.81903
G1 X145.814 Y120.339 E56.04449
G1 X144.156 Y122.306 E56.32233
G1 X143.618 Y122.784 E56.40006
G1 X143.035 Y123.212 E56.47817
G1 X142.22 Y123.667 E56.57897
G1 X142.212 Y123.672 E56.57999
G1 X141.602 Y124.05 E56.6575
G1 X141.578 Y124.067 E56.66067
G1 X140.79 Y124.732 E56.77203
G1 X140.755 Y124.77 E56.77761
G1 X140.226 Y125.526 E56.87726
G1 X138.958 Y125.983 E57.02283
G1 X137.781 Y126.435 E57.159
G1 X136.441 Y126.257 E57.30499
G1 X136.411 Y126.255 E57.30823
G1 X135.624 Y126.271 E57.39325
G1 X135.599 Y126.273 E57.39596
G1 X134.909 Y126.375 E57.47129
G1 X134.869 Y126.385 E57.47574
G1 X133.885 Y126.747 E57.58897
G1 X133.86 Y126.758 E57.59192
G1 X132.967 Y127.233 E57.70116
G1 X132.945 Y127.247 E57.70398
G1 X132.311 Y127.697 E57.78795
G1 X131.76 Y127.837 E57.84935
G1 X130.393 Y127.838 E57.99698
G1 X129.88 Y127.719 E58.05386
G1 X129.243 Y127.251 E58.13922
G1 X129.229 Y127.242 E58.14102
G1 X128.607 Y126.856 E58.22008
G1 X128.587 Y126.845 E58.22255
G1 X127.779 Y126.464 E58.31903
G1 X127.743 Y126.451 E58.32316
G1 X127.117 Y126.293 E58.39289
G1 X126.955 Y126.21 E58.41255
G1 X126.887 Y126.21 E58.41989
G1 X126.736 Y126.134 E58.43815
G1 X126.687 Y126.134 E58.44344
G1 X126.677 Y126.104 E58.44685
G1 X126.517 Y126.023 E58.46622
G1 X126.436 Y126.023 E58.47497
G1 X126.322 Y125.956 E58.48925
G1 X125.506 Y125.851 E58.57811
G1 X125.48 Y125.849 E58.58092
G1 X100.016 Y125.863 E61.33103
G1 X100.005 Y125.863 E61.33222
G1 X99.117 Y125.913 E61.42828
G1 X99.077 Y125.92 E61.43266
G1 X98.359 Y126.109 E61.51285
G1 X98.29 Y126.154 E61.52175
G1 X97.723 Y126.273 E61.58432
G1 X97.684 Y126.296 E61.58921
G1 X96.693 Y126.518 E61.69889
G1 X96.658 Y126.529 E61.70285
G1 X96.032 Y126.8 E61.77652
G1 X96.008 Y126.813 E61.77947
G1 X95.302 Y127.238 E61.86847
G1 X94.81 Y127.485 E61.92792
G1 X92.544 Y127.479 E62.17265
G1 X90.531 Y127.437 E62.3901
G1 X89.56 Y127.373 E62.4952
G1 X87.82 Y126.777 E62.69384
G1 X87.799 Y126.771 E62.69619
G1 X86.972 Y126.583 E62.78779
G1 X86.944 Y126.579 E62.79084
G1 X85.756 Y126.484 E62.91956
G1 X85.739 Y126.483 E62.9214
G1 X85.084 Y126.486 E62.99214
G1 X85.011 Y126.425 E63.00241
G1 X84.197 Y126.166 E63.09467
G1 X84.166 Y126.159 E63.0981
G1 X83.393 Y126.042 E63.18253
G1 X83.27 Y126.063 E63.19601
G1 X83.257 Y126.076 E63.198
G1 X81.411 Y125.763 E63.40021
G1 X80.773 Y125.57 E63.4722
G1 X80.146 Y125.313 E63.54538
G1 X77.701 Y123.959 E63.84723
G1 X77.694 Y123.956 E63.84805
G1 X76.97 Y123.589 E63.93571
G1 X76.486 Y123.172 E64.00471
G1 X76.466 Y123.124 E64.01033
G1 X75.969 Y122.652 E64.08435
G1 X75.761 Y122.375 E64.12176
G1 X75.761 Y121.634 E64.20179
G1 X75.759 Y121.608 E64.20461
G1 X75.66 Y120.862 E64.28588
G1 X75.606 Y120.749 E64.29941
G1 X75.599 Y120.746 E64.30023
G1 X75.563 Y117.475 E64.65352
G1 X75.562 Y105.51 E65.94574
G1 X75.599 Y102.296 E66.29287
G1 X75.664 Y102.185 E66.30677
G1 X75.759 Y101.387 E66.39356
G1 X75.76 Y101.363 E66.39615
G1 X75.76 Y100.599 E66.47867
G1 X76.063 Y100.204 E66.53243
G1 X76.833 Y99.467 E66.64754
G0 F9000 X77.069 Y99.795
G1 F1800 X78.655 Y98.967 E66.84077
G1 X78.672 Y98.958 E66.84285
G1 X80.33 Y98.022 E67.04848
G1 X80.903 Y97.787 E67.11536
G1 X81.502 Y97.606 E67.18294
G1 X83.229 Y97.31 E67.37218
G1 X83.299 Y97.331 E67.38007
G1 X83.491 Y97.322 E67.40083
G1 X84.316 Y97.144 E67.49198
G1 X84.386 Y97.124 E67.49984
G1 X84.98 Y96.918 E67.56774
G1 X87.116 Y96.92 E67.79843
G1 X87.204 Y96.905 E67.80807
G1 X87.205 Y103.104 E68.47756
G1 X87.245 Y103.319 E68.50118
G1 X87.358 Y103.505 E68.52469
G1 X87.531 Y103.638 E68.54825
G1 X87.805 Y103.704 E68.57869
G1 X91.747 Y103.704 E69.00443
G1 X91.962 Y103.664 E69.02805
G1 X92.148 Y103.551 E69.05155
G1 X92.281 Y103.378 E69.07512
G1 X92.347 Y103.104 E69.10556
G1 X92.346 Y96.902 E69.77537
G1 X92.306 Y96.687 E69.79899
G1 X92.193 Y96.501 E69.8225
G1 X92.02 Y96.368 E69.84606
G1 X91.746 Y96.302 E69.8765
G1 X89 Y96.302 E70.17307
G1 X89.075 Y96.276 E70.18164
G1 X89.737 Y96.067 E70.25662
G1 X89.773 Y96.055 E70.26072
G1 X89.848 Y96.026 E70.2694
G1 X90.355 Y95.965 E70.32455
G1 X91.548 Y95.934 E70.45344
G1 X94.899 Y95.919 E70.81535
G1 X94.979 Y95.938 E70.82423
G1 X95.634 Y96.387 E70.91
G1 X95.692 Y96.422 E70.91731
G1 X96.503 Y96.851 E71.0164
G1 X96.638 Y96.903 E71.03202
G1 X97.604 Y97.145 E71.13958
G1 X97.932 Y97.244 E71.17658
G1 X98.106 Y97.27 E71.19558
G1 X98.148 Y97.27 E71.20011
G1 X98.288 Y97.339 E71.21697
G1 X99.077 Y97.497 E71.30388
G1 X99.168 Y97.508 E71.31377
G1 X100.153 Y97.552 E71.42026
G1 X100.18 Y97.553 E71.42318
G1 X125.425 Y97.557 E74.14964
G1 X125.514 Y97.55 E74.15928
G1 X126.605 Y97.386 E74.27843
G1 X126.811 Y97.315 E74.30196
G1 X126.901 Y97.24 E74.31462
G1 X126.951 Y97.231 E74.3201
G1 X127.034 Y97.18 E74.33063
G1 X127.171 Y97.155 E74.34567
G1 X127.223 Y97.124 E74.3522
G1 X127.995 Y97.043 E74.43604
G1 X128.137 Y97.01 E74.45178
G1 X129.154 Y96.642 E74.56859
G1 X129.267 Y96.588 E74.58211
G1 X130.18 Y96.021 E74.69818
G1 X130.473 Y95.963 E74.73044
G1 X131.292 Y95.969 E74.8189
G1 X131.559 Y96.048 E74.84897
G1 X132.131 Y96.464 E74.92535
G1 X132.186 Y96.5 E74.93245
G1 X133.027 Y96.982 E75.03714
G1 X133.159 Y97.038 E75.05263
G1 X134.286 Y97.362 E75.17927
G1 X134.419 Y97.384 E75.19383
