;FLAVOR:UltiGCode
;TIME:2990
;MATERIAL:4574
;MATERIAL2:0
;NOZZLE_DIAMETER:0.4
;MINX:94.339
;MINY:93.443
;MINZ:0.17
;MAXX:130.124
;MAXY:129.546
;MAXZ:20.07
;TARGET_MACHINE.NAME:Ultimaker 2+
;Generated with Cura_SteamEngine 5.6.0
M82 ;absolute extrusion mode
G0 F3000 Y50 ;avoid prime blob
G92 E0
G92 E0
G10
;LAYER_COUNT:134
;LAYER:0
M107
G0 F9000 X95.448 Y94.467 Z0.27
;TYPE:SKIRT
G11
G1 F1800 X96.369 Y93.825 E0.12125
G1 X96.967 Y93.604 E0.1901
G1 X97.944 Y93.458 E0.29679
G1 X100.739 Y93.454 E0.59865
G1 X101.608 Y93.468 E0.69251
G1 X103.457 Y93.655 E0.89323
G1 X106.21 Y93.886 E1.19159
G1 X108.897 Y94.033 E1.48222
G1 X111.651 Y94.107 E1.77976
G1 X114.345 Y94.103 E2.07072
G1 X117.098 Y94.02 E2.36817
G1 X119.826 Y93.862 E2.66329
G1 X122.541 Y93.627 E2.95761
G1 X123.901 Y93.482 E3.10532
G1 X124.834 Y93.443 E3.20617
G1 X125.672 Y93.525 E3.29711
G1 X126.25 Y93.685 E3.36188
G1 X127.181 Y94.181 E3.47581
G1 X127.696 Y94.646 E3.55075
G1 X129.566 Y96.98 E3.87374
G1 X129.895 Y97.693 E3.95855
G1 X130.034 Y98.179 E4.01314
G1 X130.123 Y98.914 E4.0931
G1 X130.124 Y101.27 E4.34755
G1 X130.112 Y102.098 E4.43698
G1 X129.902 Y104.62 E4.7103
G1 X129.75 Y107.336 E5.00409
G1 X129.672 Y110.083 E5.30089
G1 X129.672 Y112.798 E5.59411
G1 X129.75 Y115.537 E5.89004
G1 X129.906 Y118.276 E6.18633
G1 X130.122 Y120.966 E6.47778
G1 X130.124 Y123.316 E6.73158
G1 X130.108 Y124.407 E6.84943
G1 X129.908 Y125.167 E6.9343
G1 X129.616 Y125.837 E7.01323
G1 X127.649 Y128.424 E7.36422
G1 X127.052 Y128.911 E7.44743
G1 X126.06 Y129.386 E7.56621
G1 X125.35 Y129.536 E7.64458
G1 X124.063 Y129.534 E7.78358
G1 X122.183 Y129.346 E7.98763
G1 X119.43 Y129.116 E8.28599
G1 X116.742 Y128.97 E8.57672
G1 X113.988 Y128.897 E8.87426
G1 X111.292 Y128.903 E9.16543
G1 X108.539 Y128.987 E9.46289
G1 X105.817 Y129.145 E9.75736
G1 X102.875 Y129.405 E10.07634
G1 X101.648 Y129.53 E10.20954
G1 X100.668 Y129.546 E10.31539
G1 X98.595 Y129.546 E10.53928
G1 X97.512 Y129.53 E10.65625
G1 X96.763 Y129.338 E10.73976
G1 X95.789 Y128.819 E10.85896
G1 X95.313 Y128.382 E10.92874
G1 X94.71 Y127.513 E11.04298
G1 X94.488 Y126.914 E11.11197
G1 X94.344 Y125.949 E11.21734
G1 X94.339 Y117.637 E12.11504
G1 X94.349 Y116.915 E12.19302
G1 X94.403 Y115.623 E12.33268
G1 X94.481 Y112.838 E12.63358
G1 X94.481 Y110.115 E12.92766
G1 X94.401 Y107.35 E13.22641
G1 X94.347 Y106.002 E13.37211
G1 X94.34 Y105.416 E13.4354
G1 X94.339 Y97.693 E14.26948
G1 X94.353 Y96.63 E14.3843
G1 X94.532 Y95.929 E14.46244
G1 X94.772 Y95.363 E14.52883
G1 X95.448 Y94.467 E14.65005
G0 F9000 X95.728 Y94.759
G1 F1800 X95.121 Y95.564 E14.75894
G1 X94.92 Y96.028 E14.81355
G1 X94.752 Y96.685 E14.88679
G1 X94.739 Y97.698 E14.9962
G1 X94.74 Y105.416 E15.82975
G1 X94.747 Y105.997 E15.8925
G1 X94.801 Y107.338 E16.03744
G1 X94.881 Y110.115 E16.33748
G1 X94.881 Y112.849 E16.63276
G1 X94.803 Y115.64 E16.9343
G1 X94.749 Y116.932 E17.07396
G1 X94.739 Y117.643 E17.15075
G1 X94.74 Y125.89 E18.04143
G1 X94.884 Y126.855 E18.1468
G1 X95.067 Y127.326 E18.20138
G1 X95.642 Y128.154 E18.31025
G1 X96.02 Y128.489 E18.3648
G1 X96.91 Y128.963 E18.4737
G1 X97.564 Y129.131 E18.54663
G1 X98.601 Y129.146 E18.65863
G1 X100.661 Y129.146 E18.88111
G1 X101.641 Y129.13 E18.98697
G1 X102.834 Y129.007 E19.11649
G1 X105.792 Y128.746 E19.4372
G1 X108.527 Y128.587 E19.73308
G1 X111.28 Y128.503 E20.03054
G1 X113.998 Y128.497 E20.32409
G1 X116.753 Y128.57 E20.62173
G1 X119.463 Y128.718 E20.91485
G1 X122.216 Y128.947 E21.2132
G1 X124.103 Y129.136 E21.41801
G1 X125.31 Y129.136 E21.54837
G1 X125.928 Y129.005 E21.6166
G1 X126.837 Y128.57 E21.72543
G1 X127.361 Y128.143 E21.79843
G1 X129.267 Y125.636 E22.13855
G1 X129.541 Y125.007 E22.21265
G1 X129.709 Y124.354 E22.28547
G1 X129.724 Y123.31 E22.39823
G1 X129.723 Y120.998 E22.64793
G1 X129.507 Y118.308 E22.93939
G1 X129.35 Y115.548 E23.23795
G1 X129.272 Y112.798 E23.53507
G1 X129.272 Y110.072 E23.82947
G1 X129.35 Y107.325 E24.12627
G1 X129.504 Y104.587 E24.42244
G1 X129.713 Y102.065 E24.69575
G1 X129.724 Y101.265 E24.78216
G1 X129.723 Y98.914 E25.03607
G1 X129.649 Y98.289 E25.10404
G1 X129.51 Y97.803 E25.15863
G1 X129.223 Y97.192 E25.23154
G1 X127.384 Y94.896 E25.54924
G1 X126.951 Y94.512 E25.61174
G1 X126.062 Y94.038 E25.72055
G1 X125.572 Y93.912 E25.77519
G1 X124.851 Y93.843 E25.85342
G1 X123.918 Y93.882 E25.95427
G1 X122.575 Y94.026 E26.10014
G1 X119.86 Y94.261 E26.39446
G1 X117.11 Y94.42 E26.69196
G1 X114.357 Y94.503 E26.98941
G1 X111.641 Y94.507 E27.28274
G1 X108.886 Y94.433 E27.58039
G1 X106.177 Y94.284 E27.8734
G1 X103.424 Y94.054 E28.17176
G1 X101.568 Y93.866 E28.37324
G1 X100.733 Y93.854 E28.46343
G1 X98.003 Y93.854 E28.75827
G1 X97.026 Y94 E28.86496
G1 X96.555 Y94.183 E28.91953
G1 X95.728 Y94.759 E29.02837
G10
G0 F9000 X98.139 Y97.254
G11
G1 F1800 X101.196 Y97.254 E29.35853
G1 X101.234 Y100.683 E29.72888
G1 X101.233 Y103.758 E30.06098
G1 X101.189 Y106.844 E30.39431
G1 X98.14 Y105.898 E30.73908
G1 X98.139 Y97.254 E31.67263
G0 F9000 X98.539 Y97.654
G1 F1800 X100.801 Y97.654 E31.91693
G1 X100.834 Y100.683 E32.24408
G1 X100.833 Y103.752 E32.57553
G1 X100.796 Y106.303 E32.85107
G1 X98.54 Y105.603 E33.10618
G1 X98.539 Y97.654 E33.96467
G0 F9000 X98.939 Y98.054
G1 F1800 X100.405 Y98.054 E34.123
G1 X100.434 Y100.683 E34.40695
G1 X100.433 Y103.747 E34.73786
G1 X100.404 Y105.763 E34.95561
G1 X98.94 Y105.308 E35.12118
G1 X98.939 Y98.054 E35.90461
G10
G0 F9000 X101.403 Y106.703
G0 X108.439 Y109.102
G11
G1 F1800 X115.335 Y111.235 E36.6842
G1 X115.337 Y111.455 E36.70796
G1 X108.584 Y113.671 E37.47554
G1 X108.47 Y113.437 E37.50366
G1 X108.617 Y113.337 E37.52286
G1 X108.663 Y113.293 E37.52973
G1 X109.202 Y112.596 E37.62489
G1 X109.233 Y112.54 E37.6318
G1 X109.433 Y111.971 E37.69694
G1 X109.444 Y111.916 E37.703
G1 X109.476 Y111.312 E37.76832
G1 X109.472 Y111.261 E37.77385
G1 X109.361 Y110.72 E37.83349
G1 X109.348 Y110.679 E37.83814
G1 X109.071 Y110.05 E37.91236
G1 X109.027 Y109.987 E37.92066
G1 X108.319 Y109.306 E38.02676
G1 X108.439 Y109.102 E38.05232
G10
G0 F9000 X109.384 Y109.812
G11
G1 F1800 X114.364 Y111.353 E38.61532
G1 X109.413 Y112.978 E39.17809
G1 X109.519 Y112.841 E39.1968
G1 X109.61 Y112.673 E39.21744
G1 X109.81 Y112.104 E39.28257
G1 X109.843 Y111.937 E39.30096
G1 X109.875 Y111.333 E39.36628
G1 X109.864 Y111.18 E39.38285
G1 X109.753 Y110.639 E39.44249
G1 X109.714 Y110.518 E39.45622
G1 X109.437 Y109.889 E39.53045
G1 X109.384 Y109.812 E39.54055
G0 F9000 X110.112 Y110.456
G1 F1800 X113.047 Y111.364 E39.87235
G1 X110.161 Y112.311 E40.20039
G1 X110.187 Y112.237 E40.20886
G1 X110.243 Y111.958 E40.23959
G1 X110.275 Y111.354 E40.30492
G1 X110.256 Y111.1 E40.33242
G1 X110.145 Y110.559 E40.39207
G1 X110.112 Y110.456 E40.40375
G10
G0 F9000 X101.229 Y116.102
G11
G1 F1800 X101.16 Y119.022 E40.7192
G1 X101.16 Y122.337 E41.07722
G1 X101.219 Y125.746 E41.44545
G1 X98.14 Y125.746 E41.77798
G1 X98.139 Y117.121 E42.70948
G1 X101.229 Y116.102 E43.06088
G0 F9000 X100.816 Y116.659
G1 F1800 X100.76 Y119.013 E43.31518
G1 X100.76 Y122.344 E43.67493
G1 X100.812 Y125.346 E43.99919
G1 X98.54 Y125.346 E44.24457
G1 X98.539 Y117.41 E45.10166
G1 X100.816 Y116.659 E45.3606
G0 F9000 X100.402 Y117.217
G1 F1800 X100.36 Y119.003 E45.55354
G1 X100.36 Y122.351 E45.91513
G1 X100.405 Y124.946 E46.19543
G1 X98.94 Y124.946 E46.35365
G1 X98.939 Y117.699 E47.13633
G1 X100.402 Y117.217 E47.30268
G10
G0 F9000 X101.431 Y125.55
G0 X124.543 Y125.55
G0 X124.544 Y119.394
G0 X110.399 Y118.95
G11
G1 F1800 X124.898 Y114.176 E48.95128
G1 X125.027 Y114.346 E48.97432
G1 X124.723 Y114.798 E49.03315
G1 X124.71 Y114.821 E49.03601
G1 X124.366 Y115.517 E49.11985
G1 X124.355 Y115.544 E49.123
G1 X124.189 Y116.056 E49.18113
G1 X124.181 Y116.094 E49.18533
G1 X124.087 Y116.856 E49.26825
G1 X124.086 Y116.896 E49.27257
G1 X124.141 Y117.563 E49.34485
G1 X124.149 Y117.607 E49.34968
G1 X124.32 Y118.149 E49.41106
G1 X124.332 Y118.179 E49.41455
G1 X124.629 Y118.772 E49.48618
G1 X124.638 Y118.787 E49.48806
G1 X124.784 Y119.024 E49.51813
G1 X124.697 Y119.18 E49.53742
G1 X124.685 Y119.241 E49.54413
G1 X124.56 Y119.178 E49.55925
G1 X112.198 Y119.178 E50.89435
G1 X110.442 Y119.203 E51.08401
G1 X110.399 Y118.95 E51.11173
G10
G0 F9000 X112.199 Y118.778
G11
G1 F1800 X124.272 Y114.803 E52.48447
G1 X124.007 Y115.34 E52.54914
G1 X123.974 Y115.421 E52.55859
G1 X123.808 Y115.933 E52.61672
G1 X123.784 Y116.045 E52.62909
G1 X123.69 Y116.807 E52.71201
G1 X123.687 Y116.929 E52.72519
G1 X123.742 Y117.596 E52.79747
G1 X123.768 Y117.728 E52.812
G1 X123.939 Y118.27 E52.87338
G1 X123.975 Y118.358 E52.88365
G1 X124.185 Y118.778 E52.93436
G1 X112.199 Y118.778 E54.22885
G10
G0 F9000 X114.693 Y118.378
G11
G1 F1800 X123.54 Y115.465 E55.23479
G1 X123.428 Y115.81 E55.27396
G1 X123.387 Y115.996 E55.29453
G1 X123.293 Y116.758 E55.37745
G1 X123.288 Y116.962 E55.39949
G1 X123.343 Y117.629 E55.47177
G1 X123.386 Y117.848 E55.49587
G1 X123.553 Y118.378 E55.55589
G1 X114.693 Y118.378 E56.51277
G10
G0 F9000 X124.76 Y119.433
G11
G1 F1800 X124.837 Y119.474 E56.52219
G1 X124.914 Y119.472 E56.53051
G1 X124.996 Y119.454 E56.53957
G1 X125.226 Y119.96 E56.5996
G1 X125.251 Y120.001 E56.60479
G1 X126.117 Y121.096 E56.75556
G1 X126.274 Y121.172 E56.7744
G1 X126.324 Y121.172 E56.7798
G1 X126.324 Y123.772 E57.0606
G1 X126.304 Y123.772 E57.06276
G1 X126.159 Y123.834 E57.07979
G1 X125.368 Y124.667 E57.20386
G1 X125.339 Y124.706 E57.2091
G1 X124.982 Y125.334 E57.28712
G1 X124.759 Y125.274 E57.31206
G1 X124.76 Y119.433 E57.94289
G10
G0 F9000 X125.16 Y120.531
G11
G1 F1800 X125.803 Y121.344 E58.05484
G1 X125.924 Y121.45 E58.07221
G1 X125.924 Y123.522 E58.29599
G1 X125.869 Y123.559 E58.30315
G1 X125.159 Y124.307 E58.41453
G1 X125.16 Y120.531 E58.82233
G10
G0 F9000 X124.915 Y108.111
G11
G1 F1800 X111.004 Y103.841 E60.39391
G1 X111.047 Y103.583 E60.42216
G1 X112.347 Y103.618 E60.56261
G1 X124.813 Y103.618 E61.90893
G1 X124.623 Y104.212 E61.97629
G1 X124.616 Y104.237 E61.97909
G1 X124.499 Y104.884 E62.0501
G1 X124.496 Y104.906 E62.0525
G1 X124.439 Y105.721 E62.14073
G1 X124.442 Y105.772 E62.14625
G1 X124.645 Y106.846 E62.2643
G1 X124.653 Y106.876 E62.26765
G1 X125.043 Y107.978 E62.3939
G1 X124.915 Y108.111 E62.41384
G0 F9000 X124.469 Y107.555
G1 F1800 X112.946 Y104.018 E63.71563
G1 X124.265 Y104.018 E64.93808
G1 X124.242 Y104.09 E64.94624
G1 X124.223 Y104.166 E64.9547
G1 X124.106 Y104.813 E65.02571
G1 X124.097 Y104.878 E65.0328
G1 X124.04 Y105.693 E65.12103
G1 X124.049 Y105.846 E65.13759
G1 X124.252 Y106.92 E65.25563
G1 X124.276 Y107.009 E65.26559
G1 X124.469 Y107.555 E65.32813
G0 F9000 X123.85 Y106.947
G1 F1800 X115.61 Y104.418 E66.25902
G1 X123.771 Y104.418 E67.14041
G1 X123.712 Y104.742 E67.17598
G1 X123.698 Y104.85 E67.18774
G1 X123.641 Y105.665 E67.27597
G1 X123.656 Y105.921 E67.30367
G1 X123.85 Y106.947 E67.41644
G10
G0 F9000 X124.986 Y103.255
G11
G1 F1800 X124.915 Y103.223 E67.42485
G1 X124.759 Y103.188 E67.44212
G1 X124.759 Y97.709 E68.03385
G1 X124.982 Y97.649 E68.05879
G1 X125.272 Y98.158 E68.12206
G1 X125.298 Y98.194 E68.12686
G1 X126.091 Y99.061 E68.25375
G1 X126.239 Y99.126 E68.27121
G1 X126.324 Y99.126 E68.28039
G1 X126.324 Y101.726 E68.56119
G1 X126.306 Y101.726 E68.56313
G1 X126.17 Y101.779 E68.5789
G1 X125.341 Y102.547 E68.70095
G1 X125.297 Y102.607 E68.70898
G1 X124.986 Y103.255 E68.78661
G10
G0 F9000 X125.159 Y102.171
G11
G1 F1800 X125.159 Y98.635 E69.1685
G1 X125.796 Y99.331 E69.27039
G1 X125.924 Y99.427 E69.28767
G1 X125.924 Y101.47 E69.50832
G1 X125.898 Y101.486 E69.51161
G1 X125.159 Y102.171 E69.62044
G10
G0 F9000 X124.605 Y103.279
G0 X123.298 Y104.819
;TYPE:SUPPORT
G11
G1 F1800 X118.278 Y104.819 Z0.17 E70.16271
G1 X123.334 Y106.371 E70.7339
G1 X123.23 Y105.822 E70.79425
G1 X123.298 Y104.819 E70.90282
G0 F9000 X122.682 Y105.179 Z0.27
G0 X122.682 Y105.179 Z0.17
G1 F1800 X122.682 Y105.795 E70.96935
G1 X120.679 Y105.179 E71.19567
G1 X122.912 Y105.179 E71.43684
G1 X122.682 Y105.179 E71.46168
G10
G0 F9000 X122.682 Y105.179 Z0.27
G0 X124.547 Y108.22
G0 X124.547 Y114.069
G0 X122.973 Y116.073
G11
G1 F1800 X117.186 Y117.978 Z0.17 E72.11975
G1 X122.971 Y117.978 E72.74453
G1 X122.879 Y116.87 E72.86461
G1 X122.973 Y116.073 E72.95128
G0 F9000 X122.546 Y116.592
G1 F1800 X120.015 Y117.425 E73.23905
G1 X120.015 Y117.618 E73.2599
G1 X122.58 Y117.617 E73.53692
G1 X122.558 Y117.348 E73.56607
G1 X120.249 Y117.348 E73.81544
G10
G0 F9000 X120.249 Y117.348 Z0.27
G0 X124.544 Y119.394
G0 X124.543 Y125.55
G0 X101.431 Y125.55
G0 X101.365 Y119.023
G0 X101.437 Y116.241
G0 X111.657 Y111.376
G11
G1 F1599.8 X110.681 Y111.074 Z0.17 E73.93878
G1 X110.679 Y111.696 E74.01351
G1 X111.657 Y111.376 E74.13715
G10
G0 F9000 X111.657 Y111.376 Z0.27
G0 X101.403 Y106.703
G0 X99.943 Y105.128
G11
G1 F1278.6 X99.96 Y103.739 Z0.17 E74.34133
G1 F1270.5 X99.96 Y100.685 E74.79155
G1 F1284 X99.941 Y98.522 E75.10751
G1 F1294.9 X99.407 Y98.522 E75.18494
G1 F1292.1 X99.409 Y104.962 E76.12041
G1 F1289.4 X99.943 Y105.128 E76.20179
G10
G0 F9000 X99.943 Y105.128 Z0.27
G0 X99.928 Y117.859
G11
G1 F1346 X99.399 Y118.033 Z0.17 E76.28108
G1 F1360.9 X99.395 Y122.353 E76.88061
G1 F1349 X99.403 Y124.483 E77.17851
G1 F1325.7 X99.933 Y124.483 E77.25378
G1 F1349 X99.905 Y122.344 E77.55297
G1 F1372.9 X99.905 Y119.007 E78.01247
G1 F1360.9 X99.928 Y117.859 E78.17183
G10
;MESH:Part Studio 1.stl
G0 F9000 X99.928 Y117.859 Z0.27
G0 X101.364 Y122.325
G0 X102.301 Y124.666
;TYPE:WALL-OUTER
G11
G1 F1800 X123.659 Y124.666 E80.70916
G1 X123.659 Y120.278 E81.23045
G1 X112.191 Y120.278 E82.59285
G1 X110.21 Y120.307 E82.82822
G1 X104.294 Y120.537 E83.53157
G1 X104.197 Y120.495 E83.54413
G1 X104.073 Y120.088 E83.59467
G1 X104.276 Y119.807 E83.63585
G1 X123.659 Y113.425 E86.06016
G1 X123.659 Y108.875 E86.6007
G1 X104.198 Y102.905 E89.01901
G1 X104.042 Y102.672 E89.05232
G1 X104.126 Y102.24 E89.1046
G1 X104.234 Y102.182 E89.11917
G1 X109.38 Y102.436 E89.73126
G1 X112.389 Y102.518 E90.08886
G1 X123.659 Y102.518 E91.42773
G1 X123.659 Y98.334 E91.92479
G1 X102.309 Y98.334 E94.46117
G1 X102.335 Y100.686 E94.74061
G1 X102.333 Y103.778 E95.10794
G1 X102.301 Y106.052 E95.37811
G1 X118.297 Y110.999 E97.36724
G1 X118.46 Y111.287 E97.40656
G1 X118.29 Y111.639 E97.453
G1 X102.311 Y116.89 E99.45117
G1 X102.261 Y119.035 E99.70607
G1 X102.261 Y122.337 E100.09835
G1 X102.301 Y124.666 E100.37507
G0 F9000 X102.501 Y124.666
G0 X102.694 Y124.266
;TYPE:WALL-INNER
G1 F1800 X123.259 Y124.266 E102.48504
G1 X123.259 Y120.678 E102.85317
G1 X112.197 Y120.678 E103.98813
G1 X110.226 Y120.707 E104.19038
G1 X104.257 Y120.941 E104.80327
G1 X103.949 Y120.809 E104.83765
G1 X103.733 Y120.454 E104.88028
G1 X103.673 Y120.088 E104.91834
G1 X103.788 Y119.733 E104.95662
G1 X103.916 Y119.571 E104.97781
G1 X104.151 Y119.427 E105.00608
G1 X123.259 Y113.135 E107.07012
G1 X123.259 Y109.171 E107.47682
G1 X103.982 Y103.257 E109.54563
G1 X103.756 Y102.993 E109.58128
G1 X103.648 Y102.741 E109.60941
G1 X103.668 Y102.322 E109.65245
G1 X103.848 Y101.952 E109.69467
G1 X104.166 Y101.779 E109.73181
G1 X109.412 Y102.036 E110.27069
G1 X112.389 Y102.118 E110.57625
G1 X123.259 Y102.118 E111.69151
G1 X123.259 Y98.734 E112.03871
G1 X102.713 Y98.734 E114.14673
G1 X102.735 Y100.686 E114.34702
G1 X102.733 Y103.784 E114.66487
G1 X102.705 Y105.758 E114.86743
G1 X118.503 Y110.644 E116.56405
G1 X118.742 Y110.908 E116.60059
G1 X118.853 Y111.169 E116.62969
G1 X118.765 Y111.652 E116.68006
G1 X118.63 Y111.877 E116.70698
G1 X118.457 Y112.009 E116.72931
G1 X102.705 Y117.182 E118.43038
G1 X102.661 Y119.04 E118.62107
G1 X102.661 Y122.33 E118.95862
G1 X102.694 Y124.266 E119.15728
G0 F9000 X103.009 Y123.946
;TYPE:SKIN
G1 F1800 X122.939 Y123.946 E121.09986
G1 X122.939 Y120.998 E121.3872
G1 X112.191 Y120.998 E122.43481
G1 X110.222 Y121.027 E122.62675
G1 X104.22 Y121.257 E123.21219
G1 X103.708 Y121.007 E123.26773
G1 F1756.4 X103.406 Y120.498 E123.32671
G1 F1765.9 X103.366 Y120.033 E123.373
G1 F1809.9 X103.51 Y119.586 E123.41855
G1 F1800 X103.687 Y119.348 E123.44746
G1 X104.062 Y119.118 E123.49034
G1 X122.939 Y112.903 E125.42743
G1 X122.939 Y109.407 E125.76819
G1 X104.047 Y103.613 E127.69425
G1 X103.741 Y103.454 E127.72786
G1 X103.478 Y103.147 E127.76726
